X:1
T: A Trip To Eigg
C:
R:Jig
Q:180
K:D
M:6/8
L:1/16
|:d4A2 F4D2|G2F2G2 A2B2c2|d4A2 F4D2|E2G2F2 E6|
d4A2 F4D2|G2F2G2 A6|B2G2B2 e4d2|c2B2c2 d6:|
|:c4d2 e2c2A2|d4e2 f6|e4f2 ^g2f2e2|a2b2a2 g2f2e2|
c4d2 e2c2A2|d4e2 f6|B4G2 A4d2|c2B2c2 d6:|
